X:93
T:???
M:4/4
L:1/8
R:Reel
K:G
aged BG{A}GA|BGdG eGdG|aged BG{F}GA|BGdB A2ab|aged BG{A}GA|
BGdG eGdG|age d BG{F}GA|BGdB A2eg|| a2{b}af ~g3e|a2{b}af ged2|~a3f
~g3a| gedB BAA2|~a3f ~g3e|a2{b}af ged2|bga f ~g3a|gedB BAA2|


